X: 1516
T: Hans Stohmann's Waltz
B: australian traditional tunes wiki
M:3/4
L:1/8
R: Waltz
Q: 1/4=100
K:G
V:1 
F2E2|:"G"D3^C DC|D3^C DG|B4A2|"C"E6|"D7"F2F2E2|C3B, CD|E2E2D2|"G"B,6|
"G"D3^C DC|D3^C DG|B4A2|"C"E4-EG|"D7"F2F2E2|c2B3A|"G"G3GG2|G4-GA|
"G"B2B3A|B2B3A|Bd de dB|"C"E4-EG|"D7"A2A3B|A2A3B|A2c2BA|"G"D4E2|
"G"B2B3A|B2B3A|Bd de dB|"C"E4-EG|"D7"A2A3B|c2B2A2|"G"G4"D7"F2|"G"G6:|
% abcbook-tune_id 6342d53a17d872366b89e713


% abcbook-boost 0
% abcbook-tablature 
% abcbook-transpose 
% abcbook-lastupdated 1665324368840
% abcbook-soundfonts 
% abcbook-repeats 1
% NFF Book 2022
% Bush Traditions recording played by Chris Hayden

